communes/5491.svg

<?xml version="1.0" encoding="UTF-8"?>
<svg version="1.0" viewBox="0 0 603 763" xmlns="http://www.w3.org/2000/svg" xmlns:cc="http://creativecommons.org/ns#" xmlns:dc="http://purl.org/dc/elements/1.1/" xmlns:rdf="http://www.w3.org/1999/02/22-rdf-syntax-ns#" xmlns:xlink="http://www.w3.org/1999/xlink">
<metadata>
<rdf:RDF>
<cc:Work rdf:about="">
<dc:format>image/svg+xml</dc:format>
<dc:type rdf:resource="http://purl.org/dc/dcmitype/StillImage"/>
<dc:date>07-AUG-2006</dc:date>
<dc:creator>
<cc:Agent>
<dc:title>Jérôme BLUM (wagner51)</dc:title>
</cc:Agent>
</dc:creator>
<cc:license rdf:resource="http://creativecommons.org/licenses/GPL/2.0/"/>
<dc:coverage/>
<dc:description>Gabarit pour le Projet:Blasons de WIkipédia</dc:description>
<dc:subject>
<rdf:Bag>
<rdf:li>blason suisse modèle gabarit projet blasons</rdf:li>
</rdf:Bag>
</dc:subject>
<dc:language>fr</dc:language>
<dc:title>Gabrit d'un blason suisse</dc:title>
</cc:Work>
<cc:License rdf:about="http://creativecommons.org/licenses/GPL/2.0/">
<cc:permits rdf:resource="http://web.resource.org/cc/Reproduction"/>
<cc:permits rdf:resource="http://web.resource.org/cc/Distribution"/>
<cc:requires rdf:resource="http://web.resource.org/cc/Notice"/>
<cc:permits rdf:resource="http://web.resource.org/cc/DerivativeWorks"/>
<cc:requires rdf:resource="http://web.resource.org/cc/ShareAlike"/>
<cc:requires rdf:resource="http://web.resource.org/cc/SourceCode"/>
</cc:License>
</rdf:RDF>
</metadata>
<defs>
<radialGradient id="a" cx="858.04" cy="579.93" r="300" gradientTransform="matrix(1.215 1.5316e-24 1.4647e-23 1.2667 -839.19 -490.49)" gradientUnits="userSpaceOnUse">
<stop stop-color="#fff" stop-opacity=".31373" offset="0"/>
<stop stop-color="#fff" stop-opacity=".25098" offset=".19"/>
<stop stop-color="#6b6b6b" stop-opacity=".12549" offset=".6"/>
<stop stop-opacity=".12549" offset="1"/>
</radialGradient>
</defs>
<desc>Coat of Arms of Canton of Freiburg (Fribourg)</desc>
<g>
<path d="m1.5 1.5v458.87c0 166.31 134.31 301.13 300 301.13 165.69 0 300-134.82 300-301.13v-458.87h-600z" fill="#2b5df2"/>
<path d="m301.5 761.5h2e-3c165.69 0 300-134.82 300-301.13v-458.87h-300v760z" fill="#fff"/>
</g>
<g>
<line x1="301.5" x2="301.5" y1="761.5" y2="1.5" fill="none" stroke="#000" stroke-width="3"/>
<path d="m426.84 611.88c-29.527 0-57.122 25.91-84.91 45.623-27.787 19.713-40.428 5.678-40.428 5.678s-12.638 14.035-40.426-5.678-55.383-45.623-84.909-45.623c-24.079 0-51.581 19.01-51.581 57.029 0 9.104 1.718 23.131 6.34 39.182 48.434 33.666 107.2 53.408 170.58 53.408s122.14-19.742 170.58-53.406c4.622-16.053 6.34-30.076 6.34-39.184 0-38.019-27.502-57.029-51.578-57.029z" fill="#fcef3c"/>
<path d="m472.07 708.09c4.622-16.053 6.34-30.076 6.34-39.184 0-38.021-27.502-57.029-51.578-57.029-29.527 0-57.122 25.91-84.91 45.623-27.787 19.713-40.428 5.678-40.428 5.678s-12.638 14.035-40.426-5.678-55.383-45.623-84.909-45.623c-24.079 0-51.581 19.01-51.581 57.029 0 9.104 1.718 23.131 6.34 39.182" fill="none" stroke="#000" stroke-width="3"/>
<path d="m369.93 633.42c0-37.795-30.64-68.436-68.437-68.436-37.793 0-68.435 30.641-68.435 68.436s53.733 127.95 68.435 127.95c14.701 0 68.437-90.154 68.437-127.95z" fill="#fcef3c" stroke="#000" stroke-width="3"/>
<g fill="#fff" stroke="#000" stroke-linecap="round" stroke-linejoin="round" stroke-width="3">
<path d="m253.01 326.72c-8.512-21.991-101.51-270.98-101.51-270.98s-92.998 248.99-101.51 270.98 25.892 36.887 41.498 41.144l-14.542 130.24h149.11l-14.542-130.24c15.607-4.256 50.012-19.153 41.499-41.143z"/>
<path d="m211.51 367.86c-15.607 4.256-37.242 4.877-37.242 42.651v65.973c30.039 2.929 51.784 11.502 51.784 21.621 0 12.536-33.379 22.699-74.554 22.699s-74.554-10.163-74.554-22.699c0-10.119 21.746-18.692 51.785-21.621v-65.973c0-37.774-21.635-38.395-37.242-42.651"/>
<path d="m254.34 333.18c0-13.659-68.895-15.514-68.895-15.514l-33.942-261.94-33.942 261.94s-68.895 1.855-68.895 15.514"/>
</g>
<g fill="#2b5df2" stroke="#000" stroke-linecap="round" stroke-linejoin="round" stroke-width="3">
<path d="m349.98 326.72c8.512-21.991 101.51-270.98 101.51-270.98s92.998 248.99 101.51 270.98-25.892 36.887-41.498 41.144l14.542 130.24h-149.11l14.542-130.24c-15.606-4.257-50.01-19.154-41.498-41.144z"/>
<path d="m391.48 367.86c15.606 4.256 37.242 4.877 37.242 42.651v65.973c-30.039 2.929-51.784 11.502-51.784 21.621 0 12.536 33.379 22.699 74.554 22.699 41.176 0 74.555-10.163 74.555-22.699 0-10.119-21.746-18.692-51.785-21.621 1e-3 0 1e-3 -28.198 1e-3 -65.973 0-37.774 21.635-38.395 37.242-42.651"/>
<path d="m348.66 333.18c0-13.659 68.895-15.514 68.895-15.514l33.942-261.94 33.942 261.94s68.895 1.855 68.895 15.514"/>
</g>
</g>
<g>
<path d="m1.5 1.5v458.87c0 166.31 134.31 301.13 300 301.13 165.69 0 300-134.82 300-301.13v-458.87h-600z" fill="url(#a)"/>
<path d="m1.5 1.5v458.87c0 166.31 134.31 301.13 300 301.13 165.69 0 300-134.82 300-301.13v-458.87h-600z" fill="none" stroke="#000" stroke-width="3"/>
</g>
</svg>

<?xml version="1.0" encoding="UTF-8" standalone="no"?>
<svg
   xmlns:dc="http://purl.org/dc/elements/1.1/"
   xmlns:cc="http://creativecommons.org/ns#"
   xmlns:rdf="http://www.w3.org/1999/02/22-rdf-syntax-ns#"
   xmlns:svg="http://www.w3.org/2000/svg"
   xmlns="http://www.w3.org/2000/svg"
   xmlns:xlink="http://www.w3.org/1999/xlink"
   xmlns:sodipodi="http://sodipodi.sourceforge.net/DTD/sodipodi-0.dtd"
   xmlns:inkscape="http://www.inkscape.org/namespaces/inkscape"
   height="763"
   width="603"
   version="1.0"
   id="svg20"
   sodipodi:version="0.32"
   inkscape:version="0.46"
   sodipodi:docname="Mont_la_Ville-coat_of_arms.svg"
   sodipodi:docbase="C:\Documents and Settings\Steve\Bureau\Blason Villages Suisse pour Wikipédia (par Delta-9)"
   inkscape:output_extension="org.inkscape.output.svg.inkscape">
  <metadata
     id="metadata31">
    <rdf:RDF>
      <cc:Work
         rdf:about="">
        <dc:format>image/svg+xml</dc:format>
        <dc:type
           rdf:resource="http://purl.org/dc/dcmitype/StillImage" />
        <dc:date>07-AUG-2006</dc:date>
        <dc:creator>
          <cc:Agent>
            <dc:title>Jérôme BLUM (wagner51)</dc:title>
          </cc:Agent>
        </dc:creator>
        <cc:license
           rdf:resource="http://creativecommons.org/licenses/GPL/2.0/" />
        <dc:coverage />
        <dc:description>Gabarit pour le Projet:Blasons de WIkipédia</dc:description>
        <dc:subject>
          <rdf:Bag>
            <rdf:li>blason suisse modèle gabarit projet blasons</rdf:li>
          </rdf:Bag>
        </dc:subject>
        <dc:language>fr</dc:language>
        <dc:title>Gabrit d'un blason suisse</dc:title>
      </cc:Work>
      <cc:License
         rdf:about="http://creativecommons.org/licenses/GPL/2.0/">
        <cc:permits
           rdf:resource="http://web.resource.org/cc/Reproduction" />
        <cc:permits
           rdf:resource="http://web.resource.org/cc/Distribution" />
        <cc:requires
           rdf:resource="http://web.resource.org/cc/Notice" />
        <cc:permits
           rdf:resource="http://web.resource.org/cc/DerivativeWorks" />
        <cc:requires
           rdf:resource="http://web.resource.org/cc/ShareAlike" />
        <cc:requires
           rdf:resource="http://web.resource.org/cc/SourceCode" />
      </cc:License>
    </rdf:RDF>
  </metadata>
  <defs
     id="defs29"><inkscape:perspective
   sodipodi:type="inkscape:persp3d"
   inkscape:vp_x="0 : 381.5 : 1"
   inkscape:vp_y="0 : 1000 : 0"
   inkscape:vp_z="603 : 381.5 : 1"
   inkscape:persp3d-origin="301.5 : 254.33333 : 1"
   id="perspective28" />
<linearGradient
   id="linearGradient2893">
  <stop
     style="stop-color:#ffffff;stop-opacity:0.3137255;"
     offset="0"
     id="stop2895" />
  <stop
     id="stop2897"
     offset="0.19"
     style="stop-color:#ffffff;stop-opacity:0.25098041;" />
  <stop
     style="stop-color:#6b6b6b;stop-opacity:0.1254902;"
     offset="0.60000002"
     id="stop2901" />
  <stop
     style="stop-color:#000000;stop-opacity:0.1254902;"
     offset="1"
     id="stop2899" />
</linearGradient>
<linearGradient
   id="linearGradient2955">
  <stop
     style="stop-color:white;stop-opacity:0;"
     offset="0"
     id="stop2965" />
  <stop
     style="stop-color:black;stop-opacity:0.64583331;"
     offset="1"
     id="stop2959" />
</linearGradient>
<radialGradient
   inkscape:collect="always"
   xlink:href="#linearGradient2893"
   id="radialGradient3236"
   gradientUnits="userSpaceOnUse"
   gradientTransform="matrix(1.215027,1.531577e-24,1.464684e-23,1.266667,-839.1924,-490.4894)"
   cx="858.04236"
   cy="579.93323"
   fx="858.04236"
   fy="579.93323"
   r="300" />
<inkscape:perspective
   id="perspective2515"
   inkscape:persp3d-origin="297.63751 : 280.63 : 1"
   inkscape:vp_z="595.27502 : 420.94501 : 1"
   inkscape:vp_y="0 : 1000 : 0"
   inkscape:vp_x="0 : 420.94501 : 1"
   sodipodi:type="inkscape:persp3d" />

	
	

	
	

		
		
	
		
		
		
		
	
			
			
			
		
			
			
			
		</defs>
  <sodipodi:namedview
     inkscape:window-height="968"
     inkscape:window-width="1280"
     inkscape:pageshadow="2"
     inkscape:pageopacity="0.0"
     guidetolerance="10.0"
     gridtolerance="10.0"
     objecttolerance="10.0"
     borderopacity="1.0"
     bordercolor="#666666"
     pagecolor="#ffffff"
     id="base"
     inkscape:zoom="0.92652193"
     inkscape:cx="173.53758"
     inkscape:cy="396.59791"
     inkscape:window-x="1280"
     inkscape:window-y="22"
     inkscape:current-layer="layer2"
     showgrid="false"
     showguides="true"
     inkscape:guide-bbox="true">
    <sodipodi:guide
       orientation="horizontal"
       position="761.5"
       id="guide1885" />
    <sodipodi:guide
       orientation="vertical"
       position="1.5"
       id="guide1887" />
    <sodipodi:guide
       orientation="horizontal"
       position="1.5"
       id="guide1889" />
    <sodipodi:guide
       orientation="vertical"
       position="601.5"
       id="guide1891" />
    <sodipodi:guide
       orientation="vertical"
       position="301.50081"
       id="guide1893" />
  </sodipodi:namedview>
  <desc
     id="desc22">Coat of Arms of Canton of Freiburg (Fribourg)</desc>
  <g
     inkscape:groupmode="layer"
     id="layer1"
     inkscape:label="Fond écu"
     style="opacity:1"
     sodipodi:insensitive="true">
    <path
       d="M 1.5,1.5 L 1.5,460.369 C 1.5,626.68 135.814,761.5 301.5,761.5 C 467.187,761.5 601.5,626.68 601.5,460.369 L 601.5,1.5 L 1.5,1.5 z"
       id="path2503"
       style="opacity:1;fill:#2b5df2" />
    <path
       id="path2481"
       d="M 301.497,761.499 C 301.498,761.499 301.498,761.499 301.499,761.499 C 467.186,761.499 601.499,626.679 601.499,460.368 L 601.499,1.5 L 301.497,1.5 L 301.497,761.499 z"
       style="opacity:1;fill:#ffffff" />
  </g>
  <g
     inkscape:groupmode="layer"
     id="layer2"
     inkscape:label="Meubles"
     style="opacity:1;display:inline"
     sodipodi:insensitive="true">
    <line
       style="fill:none;stroke:#000000;stroke-width:3"
       x1="301.49701"
       y1="761.49902"
       x2="301.49701"
       y2="1.4999993"
       id="line2486" />
    <g
       id="g2604">
      <path
         d="M 426.835,611.88 C 397.308,611.88 369.713,637.79 341.925,657.503 C 314.138,677.216 301.497,663.181 301.497,663.181 C 301.497,663.181 288.859,677.216 261.071,657.503 C 233.283,637.79 205.688,611.88 176.162,611.88 C 152.083,611.88 124.581,630.89 124.581,668.909 C 124.581,678.013 126.299,692.04 130.921,708.091 C 179.355,741.757 238.125,761.499 301.497,761.499 C 364.869,761.499 423.642,741.757 472.073,708.093 C 476.695,692.04 478.413,678.017 478.413,668.909 C 478.413,630.89 450.911,611.88 426.835,611.88 z"
         id="path2598"
         style="fill:#fcef3c" />
      <path
         d="M 472.073,708.093 C 476.695,692.04 478.413,678.017 478.413,668.909 C 478.413,630.888 450.911,611.88 426.835,611.88 C 397.308,611.88 369.713,637.79 341.925,657.503 C 314.138,677.216 301.497,663.181 301.497,663.181 C 301.497,663.181 288.859,677.216 261.071,657.503 C 233.283,637.79 205.688,611.88 176.162,611.88 C 152.083,611.88 124.581,630.89 124.581,668.909 C 124.581,678.013 126.299,692.04 130.921,708.091"
         id="path2600"
         style="fill:none;stroke:#000000;stroke-width:3" />
      <path
         d="M 369.934,633.425 C 369.934,595.63 339.294,564.989 301.497,564.989 C 263.704,564.989 233.062,595.63 233.062,633.425 C 233.062,671.22 286.795,761.374 301.497,761.374 C 316.198,761.374 369.934,671.22 369.934,633.425 z"
         id="path2602"
         style="fill:#fcef3c;stroke:#000000;stroke-width:3" />
    </g>
    <g
       id="g2599">
      <path
         style="fill:#ffffff;stroke:#000000;stroke-width:3;stroke-linecap:round;stroke-linejoin:round"
         d="M 253.009,326.715 C 244.497,304.724 151.499,55.734 151.499,55.734 C 151.499,55.734 58.501,304.724 49.988,326.715 C 41.475,348.706 75.88,363.602 91.486,367.859 L 76.944,498.103 L 226.052,498.103 L 211.51,367.858 C 227.117,363.602 261.522,348.705 253.009,326.715 z"
         id="path2495" />
      <path
         style="fill:#ffffff;stroke:#000000;stroke-width:3;stroke-linecap:round;stroke-linejoin:round"
         d="M 211.511,367.858 C 195.904,372.114 174.269,372.735 174.269,410.509 C 174.269,448.283 174.269,476.482 174.269,476.482 C 204.308,479.411 226.053,487.984 226.053,498.103 C 226.053,510.639 192.674,520.802 151.499,520.802 C 110.324,520.802 76.945,510.639 76.945,498.103 C 76.945,487.984 98.691,479.411 128.73,476.482 C 128.73,476.482 128.73,448.284 128.73,410.509 C 128.73,372.735 107.095,372.114 91.488,367.858"
         id="path2497" />
      <path
         style="fill:#ffffff;stroke:#000000;stroke-width:3;stroke-linecap:round;stroke-linejoin:round"
         d="M 254.336,333.184 C 254.336,319.525 185.441,317.67 185.441,317.67 L 151.499,55.733 L 117.557,317.67 C 117.557,317.67 48.662,319.525 48.662,333.184"
         id="path2499" />
    </g>
    <g
       id="g2594">
      <path
         style="fill:#2b5df2;stroke:#000000;stroke-width:3;stroke-linecap:round;stroke-linejoin:round"
         d="M 349.985,326.715 C 358.497,304.724 451.495,55.734 451.495,55.734 C 451.495,55.734 544.493,304.724 553.006,326.715 C 561.519,348.706 527.114,363.602 511.508,367.859 L 526.05,498.104 L 376.941,498.104 L 391.483,367.859 C 375.877,363.602 341.473,348.705 349.985,326.715 z"
         id="path2504" />
      <path
         style="fill:#2b5df2;stroke:#000000;stroke-width:3;stroke-linecap:round;stroke-linejoin:round"
         d="M 391.483,367.858 C 407.089,372.114 428.725,372.735 428.725,410.509 C 428.725,448.283 428.725,476.482 428.725,476.482 C 398.686,479.411 376.941,487.984 376.941,498.103 C 376.941,510.639 410.32,520.802 451.495,520.802 C 492.671,520.802 526.05,510.639 526.05,498.103 C 526.05,487.984 504.304,479.411 474.265,476.482 C 474.266,476.482 474.266,448.284 474.266,410.509 C 474.266,372.735 495.901,372.114 511.508,367.858"
         id="path2506" />
      <path
         style="fill:#2b5df2;stroke:#000000;stroke-width:3;stroke-linecap:round;stroke-linejoin:round"
         d="M 348.658,333.184 C 348.658,319.525 417.553,317.67 417.553,317.67 L 451.495,55.733 L 485.437,317.67 C 485.437,317.67 554.332,319.525 554.332,333.184"
         id="path2508" />
    </g>
  </g>
  <g
     inkscape:groupmode="layer"
     id="layer3"
     inkscape:label="Reflet final"
     style="display:inline"
     sodipodi:insensitive="true">
    <path
       style="fill:url(#radialGradient3236);fill-opacity:1"
       d="M 1.5,1.5 L 1.5,460.3679 C 1.5,626.67854 135.81454,761.5 301.49993,761.5 C 467.1854,761.5 601.5,626.67854 601.5,460.3679 L 601.5,1.5 L 1.5,1.5 z "
       id="path2346" />
  </g>
  <g
     inkscape:groupmode="layer"
     id="layer4"
     inkscape:label="Contour final"
     style="display:inline"
     sodipodi:insensitive="true">
    <path
       style="fill:none;fill-opacity:1;stroke:#000000;stroke-width:3;stroke-miterlimit:4;stroke-dasharray:none;stroke-opacity:1"
       d="M 1.5,1.5 L 1.5,460.36794 C 1.5,626.67854 135.81454,761.5 301.49993,761.5 C 467.1854,761.5 601.5,626.67854 601.5,460.36794 L 601.5,1.5 L 1.5,1.5 z "
       id="path3239" />
  </g>
</svg>
